X: 305661
M: 6/8
L: 1/8
K: C
c3 cag | fAd c3 | GAB d2c | age f2c |\
c3 (ca).g | fAd c3 | GAB dcE | F3- F2 H|]
z |\
(d_e=e) (f^fg) | a3 d'3 | (d'2c') (c'2a) | (a2g) (g2A) |\
d_e=e f^fg | a3 d'3 | a>g b>a ^c<e | d3- "^D.C."d2 |]


